X:2315
T:Arrane Varree 
C:Traditional
O:Isle of Man
Z:Collected by Mona Douglas
S:Mrs Bridson, Glion Meay 
B:Kiaull Vannin #315 
M:6/8 
K:G 
D|ABc BAG|A3-A AA|c> B c edc|B3-B E E|A3 cBA|e3-e B B|c2 c edc|B3-B2 B|
e2e efe|^d3-d B B|c2c c d c|B3-B E|A2A GAB|cA2-A c d|edc BcB|A3-A2|| 

